
#title	"MMC5 Test for nsd.lib"

#include	"test1.mml"

#Code		"../../bin/nsd_vrc6.bin"

#BGM	2


//	frequency envelop "Volume table"
Envelop(0){		8 10 12 13 14 15 D10 14 D3 13 D1 12 11 L 10 10 9 9 8 8 9 9 R 8 8 7 7 6 6 5 5 L 4 4 3 3 2 2 3 3 	}
Envelop(10){	48	32	31	30	29	28	27	26	25	24	23	22	21	L	20	R	18	16	14	12	10	L	8	}

Envelop(100){	L 0 1 2 3 3 2 1 0  -1 -2 -3 -3 -2 -1 	}

Envelop(200){	0 1 2 3 4 5 6 L 7	}

bgm(0){
	t120

	TR6	l4o4v15	Ev0		Em100	E@200			cdefgab> c1
	TR7	l4o4v11	Ev0		Em100	E@200	r-8.	cdefgab> c1
	TR8	l4o2v15	Ev10	Em100	E@200			cdefgab> c1

}

bgm(1){
	TR8	l8o4	v12	Rm1	Rv2	u16		cefgagfe c1
}

